images/ICONOS/CEGID/ONBOARDING ICON.svg

<svg width="46" height="47" viewBox="0 0 46 47" fill="none" xmlns="http://www.w3.org/2000/svg">
<path d="M36.2394 23.4197C36.8872 23.4853 37.4647 23.5269 38.0359 23.6065C38.6574 23.6923 38.8545 23.9485 38.867 24.5922C38.8695 24.7487 38.8733 24.9103 38.9122 25.0605C39.0968 25.7761 39.668 25.9553 40.2279 25.482C41.172 24.6843 41.2122 24.6364 42.1551 25.4505C42.9096 26.1018 43.5775 26.8628 44.2341 27.6189C44.6258 28.0707 44.5618 28.3446 44.15 28.77C44.0521 28.8709 43.9165 28.9694 43.8813 29.0918C43.7985 29.3809 43.6327 29.7557 43.7457 29.9615C43.8713 30.1899 44.2605 30.2846 44.548 30.407C44.6534 30.4524 44.7965 30.4171 44.9208 30.4083C45.369 30.3767 45.6402 30.5938 45.7394 31.0191C46.0419 32.3255 46.0934 33.6394 45.8285 34.9596C45.7457 35.3749 45.4908 35.5831 45.0803 35.6147C44.9874 35.6223 44.8919 35.6122 44.7978 35.6134C44.3697 35.6185 43.9516 35.7005 43.7821 36.1448C43.6076 36.6004 43.9052 36.9198 44.2203 37.2038C44.7074 37.6405 44.7426 37.8841 44.3948 38.423C43.7206 39.4668 42.897 40.3642 41.8475 41.0407C41.3767 41.3449 41.1218 41.3209 40.7264 40.9322C40.6812 40.888 40.6397 40.8401 40.5933 40.7984C40.2995 40.5359 39.963 40.3226 39.5713 40.4728C39.1633 40.6293 39.1269 41.0471 39.0779 41.4257C39.0679 41.5027 39.0817 41.5835 39.0842 41.6617C39.098 42.1994 38.9173 42.4531 38.3774 42.5339C37.6668 42.6412 36.95 42.7068 36.1841 42.7977C36.1628 42.9744 36.1465 43.1902 36.1075 43.401C35.7422 45.4205 34.0047 46.9515 31.9457 46.978C29.1059 47.0158 26.266 46.9931 23.4262 46.9944C18.7032 46.9982 13.9814 47.0045 9.25842 46.9931C9.02993 46.9931 8.73867 46.906 8.58424 46.7521C6.74626 44.9206 4.93213 43.064 3.10419 41.2225C2.1626 40.2734 1.19716 39.3482 0.266867 38.3889C0.11119 38.2286 0.000710542 37.9459 0.000710542 37.72C-0.00305582 26.7593 0.00949871 15.7962 0.00698781 4.83426C0.00698781 2.82994 0.799179 1.29893 2.62586 0.459591C3.28498 0.156671 4.07591 0.0443381 4.81035 0.0291921C7.2723 -0.0225567 9.73675 0.0102596 12.2 0.0102596C18.648 0.0102596 25.0972 0.00773527 31.5452 0.0115218C33.8339 0.0127839 35.5526 1.25476 36.0787 3.31209C36.2017 3.79297 36.2318 4.3092 36.2331 4.80901C36.2431 10.8182 36.2394 16.8286 36.2394 22.8378C36.2394 23.0259 36.2394 23.2127 36.2394 23.4197ZM34.6989 42.6727C34.0335 42.4304 33.9344 42.2878 33.9143 41.5923C33.9017 41.1682 33.8415 40.7391 33.3995 40.5599C32.9451 40.3756 32.6262 40.6671 32.3437 40.9852C32.3123 41.0206 32.2847 41.0597 32.2533 41.0938C31.9181 41.4547 31.603 41.5368 31.2213 41.2187C30.4166 40.5485 29.5917 39.8846 28.8937 39.1084C28.099 38.2249 28.1781 38.1895 28.851 37.205C29.0218 36.9539 29.1297 36.5134 29.0243 36.2622C28.9314 36.04 28.5045 35.953 28.2158 35.8255C28.1379 35.7914 28.03 35.823 27.9358 35.8255C27.3646 35.8431 27.126 35.6652 27.0118 35.1136C26.7745 33.9613 26.7142 32.8026 26.8963 31.6351C27.0294 30.7806 27.1624 30.6556 28.0086 30.6291C28.4355 30.6153 28.846 30.5294 29.0105 30.0751C29.1712 29.6282 28.8711 29.3354 28.5798 29.059C28.5347 29.0161 28.4807 28.9808 28.4355 28.9378C28.1279 28.6513 28.0701 28.3307 28.2974 27.9647C28.9967 26.8389 29.8717 25.8859 30.9891 25.164C31.3582 24.9254 31.6934 24.9342 32.0035 25.2586C32.3399 25.612 32.7216 25.9692 33.2275 25.7521C33.7172 25.5426 33.7121 25.0239 33.687 24.5581C33.6607 24.081 33.8942 23.7806 34.3336 23.7188C34.7228 23.6645 34.8019 23.4979 34.8019 23.1331C34.7918 16.9965 34.7968 10.8586 34.7931 4.72192C34.7918 2.70625 33.564 1.46427 31.5691 1.46301C22.6403 1.45923 13.7103 1.47185 4.78148 1.45292C2.80665 1.45165 1.45327 2.88674 1.4608 4.80523C1.50098 15.3759 1.48089 25.9465 1.48089 36.5159C1.48089 36.6875 1.48089 36.8592 1.48089 37.0927C1.68176 37.0927 1.84999 37.0927 2.01822 37.0927C3.3829 37.0927 4.7526 37.1558 6.11351 37.0788C8.37709 36.9501 9.94516 38.5366 9.81208 40.8186C9.73173 42.2019 9.79701 43.5941 9.79701 44.9825C9.79701 45.1516 9.79701 45.3195 9.79701 45.5416C10.0406 45.5416 10.2251 45.5416 10.4084 45.5416C17.3912 45.5416 24.3753 45.5416 31.3582 45.5416C31.5151 45.5416 31.672 45.5442 31.829 45.5341C33.446 45.428 34.5633 44.3236 34.6989 42.6727ZM31.5101 39.6662C33.1961 38.4142 34.9111 39.0036 35.4258 41.2074C35.9519 41.2074 36.4829 41.1998 37.0152 41.2099C37.4057 41.2175 37.5689 41.0572 37.6568 40.652C37.987 39.121 39.4458 38.4722 40.8205 39.2106C40.9825 39.2977 41.1381 39.3961 41.3578 39.5262C41.8563 38.9872 42.3497 38.4546 42.8343 37.9308C41.6027 36.4136 42.1287 34.3853 44.3458 34.0319C44.3458 33.4728 44.3421 32.9086 44.3471 32.3444C44.3496 32.015 44.2316 31.8749 43.8725 31.7992C42.2869 31.4647 41.6215 29.9867 42.3848 28.5756C42.4664 28.4254 42.5593 28.2815 42.6886 28.0632C42.1576 27.5633 41.6303 27.066 41.1105 26.5776C39.7007 27.7375 37.6028 27.3993 37.2324 25.0579C36.675 25.0579 36.1138 25.0617 35.5539 25.0567C35.2011 25.0542 35.0668 25.2081 34.9902 25.5716C34.6776 27.0686 33.279 27.7476 31.9256 27.09C31.731 26.9954 31.549 26.8755 31.2866 26.7253C30.7945 27.2503 30.2961 27.7817 29.8039 28.3068C31.136 29.9501 30.2898 31.885 28.5547 32.1374C28.443 32.1538 28.2773 32.3507 28.2723 32.4694C28.2434 33.0916 28.2585 33.7164 28.2585 34.3197C28.5849 34.3954 28.7857 34.4295 28.9778 34.4901C29.7437 34.7337 30.2961 35.2032 30.512 36.0085C30.694 36.6825 30.5007 37.2909 30.1404 37.8487C30.0035 38.0608 30.001 38.2059 30.1793 38.3763C30.62 38.7991 31.0556 39.227 31.5101 39.6662ZM8.45744 44.3325C8.45744 42.9403 8.49762 41.5254 8.44238 40.1131C8.40974 39.3015 7.63512 38.6679 6.80025 38.6439C6.14239 38.625 5.48327 38.6376 4.82542 38.6376C4.14371 38.6376 3.462 38.6376 2.79535 38.6376C4.69234 40.546 6.56924 42.4329 8.45744 44.3325Z" fill="#1D53D2"/>
<path d="M20.6416 25.3924C19.8042 27.2869 17.9211 27.3033 16.8727 25.891C16.6656 26.045 16.4459 26.1876 16.25 26.358C15.1151 27.3563 13.355 26.8187 12.9783 25.3331C12.8879 24.9784 12.7461 24.8131 12.392 24.6856C11.684 24.4306 11.237 23.874 11.0889 23.1306C11.0261 22.8125 10.9068 22.6737 10.5967 22.5664C9.84221 22.3039 9.41033 21.7119 9.23834 20.9433C9.18812 20.7174 9.1266 20.6113 8.88806 20.5394C8.10592 20.3008 7.59369 19.7505 7.43174 18.9528C7.26853 18.1451 7.47945 17.4206 8.14358 16.8741C8.35952 16.6961 8.56918 16.5093 8.82027 16.2922C8.4474 15.8517 8.09964 15.4402 7.68283 14.9455C7.58114 15.0995 7.53217 15.2017 7.4581 15.2787C7.10783 15.6434 6.77137 15.68 6.38218 15.3531C5.66029 14.746 4.94971 14.1251 4.24916 13.494C3.83487 13.1204 3.84114 12.7342 4.24163 12.2533C5.52094 10.716 6.8015 9.18242 8.08081 7.64763C8.96716 6.58362 9.85225 5.51961 10.7399 4.45687C11.237 3.86113 11.517 3.83967 12.1045 4.34706C12.6758 4.84057 13.2432 5.3366 13.8107 5.83516C14.4359 6.38546 14.4723 6.56343 14.0907 7.33713C15.1578 7.61229 16.2149 7.88491 17.272 8.15754C17.4842 8.21181 17.7001 8.25599 17.9097 8.3191C18.5299 8.5059 19.0535 8.5892 19.6787 8.10579C20.2336 7.67665 21.0333 7.56685 21.7251 7.31568C21.9724 7.22606 22.2197 7.13897 22.467 7.05062C22.2172 6.33497 22.295 6.09011 22.8826 5.66224C23.543 5.18135 24.1996 4.69668 24.8599 4.2158C25.4123 3.81317 25.8392 3.87754 26.2133 4.44299C28.1756 7.40781 30.1354 10.3752 32.0914 13.345C32.3964 13.8083 32.3374 14.2134 31.903 14.5428C31.1774 15.0931 30.4404 15.6308 29.6972 16.1559C29.1787 16.5219 28.9201 16.4689 28.3601 15.9502C27.4638 16.4033 27.052 17.2679 26.541 18.0706C26.8071 18.3962 27.0796 18.7017 27.3194 19.0311C27.8241 19.7266 27.927 20.4876 27.5315 21.2563C27.1386 22.0186 26.4933 22.4049 25.6182 22.396C25.4713 22.3948 25.2504 22.4869 25.1876 22.6043C24.8248 23.2821 24.2297 23.5648 23.5229 23.7049C23.3898 23.7314 23.209 23.8084 23.1601 23.9144C22.6566 25.0024 21.8243 25.5022 20.6416 25.3924ZM17.6097 9.72767C16.0868 9.34145 14.6657 8.97038 13.2344 8.63338C13.1001 8.60182 12.8691 8.74445 12.7611 8.87193C11.4693 10.4168 10.1912 11.9731 8.91066 13.5281C8.81399 13.6454 8.72611 13.7691 8.63321 13.8916C9.07011 14.4053 9.48441 14.8925 9.88992 15.3708C11.2169 14.7347 12.2489 15.0528 12.9746 16.2707C13.0398 16.3793 13.2018 16.5106 13.3085 16.5017C14.6581 16.3944 15.9776 17.6945 15.6148 19.1497C15.5909 19.2444 15.6386 19.4173 15.7115 19.4665C16.8188 20.2238 17.041 21.2285 16.5413 22.4566C17.1653 22.9413 17.4942 23.5572 17.6047 24.3663C17.6549 24.7323 18.0679 25.0895 18.3956 25.3546C18.5048 25.4429 18.9141 25.2914 19.0823 25.1362C19.341 24.8964 19.2179 24.5733 19.0221 24.3246C18.6128 23.8059 18.1834 23.3035 17.7654 22.7911C17.4025 22.3468 17.3724 21.8912 17.6838 21.6122C18.1345 21.2096 18.6304 21.2437 19.0397 21.717C19.5431 22.3001 20.0403 22.8908 20.5399 23.4764C20.9153 23.9157 21.2405 23.9838 21.5744 23.6961C21.8644 23.4462 21.8318 23.1382 21.4677 22.7128C20.9467 22.1032 20.4207 21.4974 19.9022 20.884C19.5469 20.4637 19.5506 20.0383 19.9009 19.7177C20.265 19.3845 20.7019 19.4363 21.081 19.8767C21.6761 20.5684 22.2524 21.2765 22.8537 21.9618C22.9655 22.0893 23.1676 22.2332 23.3057 22.213C23.4953 22.1853 23.7652 22.0426 23.8154 21.8886C23.8794 21.6917 23.8305 21.3749 23.7024 21.2121C23.14 20.4952 22.5286 19.8149 21.9385 19.1207C21.5518 18.6663 21.5531 18.2523 21.936 17.9204C22.2963 17.6086 22.6842 17.6768 23.0646 18.1299C23.7514 18.9491 24.4369 19.7707 25.1186 20.5962C25.3106 20.8284 25.5078 21.0001 25.8404 20.8903C26.3903 20.7098 26.4795 20.263 26.0288 19.7417C24.3439 17.7879 22.6491 15.8429 20.9567 13.8953C20.6604 13.5533 20.3566 13.2176 20.0315 12.8515C19.8293 13.027 19.6586 13.1847 19.4791 13.3312C18.1458 14.4191 16.2588 14.3434 15.1678 13.1608C14.6293 12.5764 14.6556 12.1662 15.2758 11.6525C16.0241 11.034 16.7761 10.4168 17.6097 9.72767ZM16.702 12.4653C17.3988 12.8679 17.9625 12.7569 18.4873 12.2785C18.7898 12.0034 19.1037 11.7408 19.4125 11.4732C19.9624 10.9974 20.1683 11.0163 20.7672 11.4379C21.6397 12.0526 22.5675 12.4603 23.6698 12.0576C24.1242 11.8923 24.5172 12.0766 24.6415 12.454C24.7808 12.878 24.6051 13.2567 24.1268 13.4145C23.6936 13.5571 23.2366 13.629 22.7382 13.7439C23.6836 14.7978 24.6114 15.834 25.4939 16.8173C26.1681 16.0587 26.8235 15.3203 27.4989 14.5605C26.207 12.6054 24.8825 10.596 23.5492 8.59173C23.484 8.49328 23.3145 8.35949 23.2442 8.38473C22.2699 8.72678 21.2003 8.9363 20.3591 9.49165C19.0698 10.3449 17.9411 11.4392 16.702 12.4653ZM29.3833 14.6186C29.8127 14.3106 30.2119 14.0241 30.62 13.7313C28.8209 11.0555 27.0595 8.439 25.288 5.80486C24.8763 6.11914 24.5084 6.40187 24.1268 6.69343C25.8957 9.35912 27.632 11.9781 29.3833 14.6186ZM5.71428 12.8578C6.0997 13.1911 6.44119 13.4864 6.81405 13.807C8.76754 11.4493 10.6984 9.11931 12.6532 6.75906C12.2703 6.42711 11.9225 6.12672 11.5559 5.80865C9.58986 8.18026 7.66525 10.5026 5.71428 12.8578ZM14.1898 18.6979C14.0392 18.4985 13.9312 18.2056 13.7668 18.1703C13.5295 18.1186 13.1892 18.1716 13.0034 18.3192C12.3029 18.8746 11.645 19.4842 10.9771 20.08C10.6595 20.3627 10.6068 20.7237 10.8277 20.9912C11.0738 21.2904 11.4228 21.3093 11.7831 21.0051C12.4787 20.417 13.1641 19.8162 13.8421 19.2078C13.9727 19.0892 14.048 18.9099 14.1898 18.6979ZM9.39652 19.2217C9.57605 19.1497 9.71039 19.1295 9.79827 19.0563C10.3482 18.5919 10.8905 18.1186 11.4278 17.6402C11.7693 17.336 11.6262 17.0066 11.4178 16.7163C11.2069 16.4222 10.8905 16.479 10.6696 16.6633C10.0933 17.1416 9.53211 17.644 9.00984 18.1817C8.89058 18.3054 8.88555 18.6323 8.95335 18.8216C9.01361 18.9882 9.24712 19.0942 9.39652 19.2217ZM12.4184 22.6914C12.5904 22.8845 12.7109 23.1369 12.8904 23.1899C13.0926 23.2505 13.3989 23.2038 13.5684 23.0789C14.058 22.7191 14.5062 22.3014 14.9645 21.8987C15.3386 21.5706 15.3901 21.2386 15.1289 20.9206C14.908 20.6492 14.5363 20.6492 14.1748 20.9496C13.6939 21.3484 13.2206 21.7574 12.7586 22.1802C12.6306 22.2976 12.5578 22.4768 12.4184 22.6914ZM14.8778 25.4113C15.4453 25.3987 15.9023 24.9254 15.9927 24.3839C16.019 24.2249 16.0128 23.9523 15.9261 23.9031C15.7441 23.8008 15.4641 23.7264 15.2884 23.7983C15.0122 23.9119 14.746 24.1214 14.5564 24.3562C14.4347 24.5076 14.3669 24.8156 14.4384 24.9835C14.5263 25.1905 14.7824 25.3255 14.8778 25.4113Z" fill="#1D53D2"/>
<path d="M14.3832 33.6356C17.4741 33.6356 20.565 33.6356 23.656 33.6369C23.8129 33.6369 23.9736 33.6255 24.1255 33.6558C24.4783 33.724 24.6754 33.9575 24.6942 34.3121C24.7131 34.6605 24.5611 34.9394 24.2209 35.0442C24.0163 35.1073 23.7878 35.1124 23.5706 35.1124C17.4352 35.1161 11.2998 35.1149 5.16565 35.1136C4.97858 35.1136 4.78775 35.1086 4.60446 35.077C4.22029 35.0101 4.04076 34.7463 4.03825 34.3753C4.03574 33.9764 4.24414 33.7202 4.64087 33.6508C4.79403 33.6243 4.95347 33.6369 5.1104 33.6369C8.20133 33.6356 11.2923 33.6356 14.3832 33.6356Z" fill="#1D53D2"/>
<path d="M14.3907 29.6636C17.4666 29.6636 20.5412 29.6636 23.617 29.6648C23.789 29.6648 23.9661 29.656 24.133 29.6901C24.4833 29.762 24.6804 29.9968 24.6955 30.3527C24.7105 30.7011 24.5574 30.975 24.2134 31.0797C24.0226 31.1378 23.8129 31.1441 23.6108 31.1441C17.444 31.1466 11.2772 31.1466 5.1104 31.1454C4.93841 31.1454 4.7639 31.1454 4.59567 31.1126C4.21652 31.0381 4.03699 30.7756 4.03699 30.402C4.03699 30.0258 4.22782 29.7709 4.60069 29.6926C4.76767 29.6573 4.94343 29.6648 5.11543 29.6648C8.20886 29.6636 11.2998 29.6636 14.3907 29.6636Z" fill="#1D53D2"/>
<path d="M18.9329 37.6051C20.9417 37.6051 22.9504 37.6026 24.9591 37.6077C25.5868 37.6089 25.9447 38.0469 25.7551 38.5757C25.6182 38.9569 25.3069 39.0718 24.9302 39.0705C23.8167 39.068 22.7018 39.0705 21.5882 39.0705C18.7007 39.0705 15.8131 39.0718 12.9269 39.0692C12.3092 39.068 12.0506 38.8749 12.0141 38.418C11.9727 37.9055 12.2514 37.6114 12.8139 37.6089C14.461 37.6026 16.1094 37.6064 17.7566 37.6064C18.1483 37.6051 18.54 37.6051 18.9329 37.6051Z" fill="#1D53D2"/>
<path d="M23.9108 41.5772C25.1349 41.5772 26.3577 41.5746 27.5818 41.5784C28.1442 41.5797 28.4217 41.8258 28.4217 42.3017C28.4217 42.7838 28.1555 43.0249 27.583 43.0261C25.1048 43.0299 22.6265 43.0299 20.1482 43.0261C19.5958 43.0249 19.2983 42.7611 19.297 42.3029C19.297 41.8435 19.5971 41.5797 20.1457 41.5784C21.4012 41.5746 22.6554 41.5772 23.9108 41.5772Z" fill="#1D53D2"/>
<path d="M36.3097 28.876C38.6586 28.8709 40.6435 30.8614 40.6347 33.2103C40.6259 35.5718 38.695 37.5117 36.3461 37.5206C33.967 37.5294 32.0198 35.597 32.006 33.2153C31.9922 30.8349 33.9306 28.881 36.3097 28.876ZM39.1583 33.127C39.1608 31.5493 37.8978 30.2669 36.3298 30.2581C34.768 30.2492 33.4862 31.5291 33.4811 33.1042C33.4761 34.658 34.773 35.9832 36.3072 35.9908C37.8388 35.9971 39.1558 34.6744 39.1583 33.127Z" fill="#1D53D2"/>
</svg>

<svg width="46" height="47" fill="none" xmlns="http://www.w3.org/2000/svg"><path d="M36.24 23.42c.647.065 1.225.107 1.796.186.621.086.819.342.831.986.003.157.006.318.045.469.185.715.756.894 1.316.421.944-.798.984-.846 1.927-.031.755.65 1.422 1.412 2.08 2.168.39.452.327.726-.085 1.151-.098.1-.233.2-.269.322-.083.289-.248.664-.135.87.125.228.514.323.802.445.105.045.248.01.373.001.448-.031.72.186.818.611.303 1.306.354 2.62.09 3.94-.083.416-.338.624-.749.656-.093.007-.188-.003-.282-.002-.428.005-.846.087-1.016.532-.174.455.123.775.438 1.059.487.437.523.68.175 1.219-.674 1.044-1.498 1.941-2.548 2.618-.47.304-.725.28-1.12-.109-.046-.044-.087-.092-.134-.134-.294-.262-.63-.475-1.022-.325-.408.156-.444.574-.493.953-.01.077.004.157.006.236.014.537-.167.791-.707.872-.71.107-1.427.173-2.193.264-.021.176-.037.392-.076.603-.366 2.02-2.103 3.55-4.162 3.577-2.84.038-5.68.015-8.52.016-4.723.004-9.445.01-14.168 0-.228 0-.52-.088-.674-.242-1.838-1.831-3.652-3.688-5.48-5.53-.941-.949-1.907-1.874-2.837-2.833A1.054 1.054 0 0 1 0 37.72C-.003 26.76.009 15.796.007 4.834.007 2.83.799 1.3 2.626.46 3.285.157 4.076.044 4.81.03 7.272-.024 9.737.01 12.2.01c6.448 0 12.897-.002 19.345.002 2.289 0 4.008 1.243 4.534 3.3.123.481.153.997.154 1.497.01 6.01.006 12.02.006 18.029v.582Zm-1.541 19.253c-.666-.243-.765-.385-.785-1.08-.012-.425-.072-.854-.514-1.033-.455-.184-.774.107-1.056.425-.032.036-.06.075-.09.109-.336.36-.651.443-1.033.125-.804-.67-1.63-1.334-2.327-2.11-.795-.884-.716-.92-.043-1.904.17-.251.279-.692.173-.943-.093-.222-.52-.309-.808-.437-.078-.034-.186-.002-.28 0-.571.018-.81-.16-.924-.711-.238-1.153-.298-2.311-.116-3.479.133-.854.266-.98 1.113-1.006.427-.014.837-.1 1.002-.554.16-.447-.14-.74-.431-1.016-.045-.043-.1-.078-.144-.121-.308-.287-.366-.607-.139-.973.7-1.126 1.575-2.08 2.692-2.801.37-.239.704-.23 1.015.095.336.353.718.71 1.224.493.49-.21.484-.728.459-1.194-.026-.477.207-.777.647-.84.389-.053.468-.22.468-.585-.01-6.136-.005-12.274-.009-18.411-.001-2.016-1.229-3.258-3.224-3.259-8.929-.004-17.859.009-26.788-.01-1.974-.001-3.328 1.434-3.32 3.352.04 10.57.02 21.142.02 31.71v.578h.537c1.365 0 2.735.063 4.096-.014 2.263-.129 3.831 1.458 3.698 3.74-.08 1.383-.015 2.775-.015 4.163v.56h21.561c.157 0 .314.002.471-.008 1.617-.106 2.734-1.21 2.87-2.861Zm-3.189-3.007c1.686-1.252 3.401-.662 3.916 1.541.526 0 1.057-.007 1.59.003.39.008.553-.153.64-.558.331-1.531 1.79-2.18 3.165-1.441.162.087.317.185.537.315l1.476-1.595c-1.231-1.517-.705-3.546 1.512-3.9 0-.558-.004-1.122.001-1.687.003-.329-.115-.47-.474-.545-1.586-.334-2.252-1.812-1.488-3.223.081-.15.174-.294.304-.513l-1.578-1.485c-1.41 1.16-3.508.821-3.879-1.52-.557 0-1.118.004-1.678-.001-.353-.003-.487.151-.564.515-.312 1.497-1.711 2.176-3.064 1.518-.195-.095-.377-.215-.64-.365l-1.482 1.582c1.332 1.643.486 3.578-1.25 3.83-.111.017-.277.214-.282.332-.029.623-.013 1.247-.013 1.85.326.076.527.11.719.171.766.244 1.318.713 1.534 1.518.182.674-.011 1.283-.372 1.84-.137.213-.139.358.04.528.44.423.876.851 1.33 1.29ZM8.457 44.333c0-1.393.04-2.808-.015-4.22-.032-.812-.807-1.445-1.642-1.47-.658-.018-1.317-.005-1.975-.005h-2.03l5.662 5.695Z" fill="#1D53D2"/><path d="M20.642 25.392c-.838 1.895-2.72 1.911-3.77.499-.206.154-.426.297-.622.467a1.996 1.996 0 0 1-3.272-1.025c-.09-.355-.232-.52-.586-.647-.708-.255-1.155-.812-1.303-1.555-.063-.319-.182-.457-.492-.565-.755-.262-1.187-.854-1.359-1.623-.05-.226-.111-.332-.35-.404-.782-.238-1.294-.789-1.456-1.586-.163-.808.047-1.532.712-2.079.216-.178.425-.365.676-.582-.373-.44-.72-.852-1.137-1.347-.102.155-.15.257-.225.334-.35.364-.687.401-1.076.074a83.107 83.107 0 0 1-2.133-1.859c-.414-.374-.408-.76-.007-1.24 1.279-1.538 2.56-3.072 3.839-4.606.886-1.064 1.771-2.128 2.659-3.191.497-.596.777-.617 1.364-.11.572.494 1.14.99 1.707 1.488.625.55.661.728.28 1.502l3.181.82c.212.055.428.099.638.162.62.187 1.143.27 1.769-.213.555-.43 1.354-.54 2.046-.79.247-.09.495-.177.742-.265-.25-.716-.172-.96.416-1.389.66-.48 1.317-.965 1.977-1.446.552-.403.98-.338 1.353.227a4740.76 4740.76 0 0 1 5.878 8.902c.305.463.246.868-.188 1.198a81.008 81.008 0 0 1-2.206 1.613c-.518.366-.777.313-1.337-.206-.896.453-1.308 1.318-1.819 2.12.266.326.539.632.778.961.505.696.608 1.457.213 2.225-.393.763-1.039 1.149-1.914 1.14-.147-.001-.368.09-.43.208-.363.678-.958.96-1.665 1.1-.133.027-.314.104-.363.21-.503 1.088-1.336 1.588-2.518 1.478ZM17.61 9.728c-1.523-.387-2.944-.758-4.376-1.095-.134-.031-.365.111-.473.239-1.292 1.545-2.57 3.101-3.85 4.656-.097.117-.185.241-.278.364L9.89 15.37c1.327-.636 2.359-.318 3.085.9.065.108.227.24.334.23 1.35-.107 2.669 1.194 2.306 2.649-.024.094.024.267.096.317 1.108.757 1.33 1.762.83 2.99.624.484.953 1.1 1.064 1.91.05.365.463.723.79.988.11.088.52-.064.687-.219.259-.24.136-.563-.06-.811-.41-.52-.839-1.021-1.257-1.534-.363-.444-.393-.9-.081-1.179.45-.402.946-.368 1.356.105.503.583 1 1.174 1.5 1.76.375.439.7.507 1.034.22.29-.25.258-.559-.106-.984-.521-.61-1.047-1.216-1.566-1.829-.355-.42-.351-.846-.001-1.166.364-.334.8-.282 1.18.159.595.691 1.171 1.4 1.773 2.085.111.127.314.271.452.251.19-.028.46-.17.51-.324.063-.197.015-.514-.114-.677-.562-.717-1.173-1.397-1.764-2.091-.386-.455-.385-.869-.002-1.2.36-.312.748-.244 1.129.209.686.82 1.372 1.64 2.054 2.466.192.232.389.404.721.294.55-.18.64-.627.189-1.148-1.685-1.954-3.38-3.9-5.072-5.847-.297-.342-.6-.677-.925-1.043-.203.175-.373.333-.553.48-1.333 1.087-3.22 1.011-4.311-.171-.539-.585-.512-.995.108-1.508.748-.619 1.5-1.236 2.334-1.925Zm-.908 2.737c.697.403 1.26.292 1.785-.187.303-.275.617-.537.926-.805.55-.476.755-.457 1.354-.035.873.615 1.8 1.022 2.903.62.454-.166.847.019.971.396.14.424-.036.803-.514.96-.433.143-.89.215-1.389.33.946 1.054 1.873 2.09 2.756 3.073l2.005-2.257c-1.292-1.955-2.616-3.964-3.95-5.968-.065-.099-.235-.233-.305-.207-.974.342-2.044.551-2.885 1.107-1.29.853-2.418 1.947-3.657 2.973Zm12.681 2.154 1.237-.888-5.332-7.926-1.161.888 5.256 7.926ZM5.714 12.858l1.1.949 5.84-7.048c-.384-.332-.732-.632-1.098-.95l-5.842 7.049Zm8.476 5.84c-.15-.2-.259-.492-.423-.528-.237-.051-.578.002-.764.15-.7.555-1.358 1.164-2.026 1.76-.318.283-.37.644-.15.911.247.3.596.318.956.014a92.68 92.68 0 0 0 2.06-1.797c.13-.119.205-.298.347-.51Zm-4.793.524c.18-.072.313-.093.401-.166.55-.464 1.092-.937 1.63-1.416.341-.304.198-.633-.01-.924-.211-.294-.527-.237-.748-.053-.577.479-1.138.981-1.66 1.519-.12.123-.124.45-.057.64.06.166.294.272.444.4Zm3.021 3.47c.172.192.293.445.472.498a.87.87 0 0 0 .678-.111c.49-.36.938-.778 1.396-1.18.375-.328.426-.66.165-.978-.221-.272-.593-.272-.954.029-.481.398-.954.807-1.416 1.23-.128.118-.201.297-.34.511Zm2.46 2.72c.567-.013 1.024-.487 1.115-1.028.026-.16.02-.432-.067-.48-.182-.103-.462-.178-.638-.106a1.924 1.924 0 0 0-.732.558c-.121.152-.19.46-.118.627.088.207.344.343.44.428ZM14.383 33.636h9.273c.157 0 .318-.01.47.02.352.068.55.302.568.656.02.349-.133.627-.473.732-.205.063-.433.068-.65.068-6.136.004-12.271.003-18.405.002-.187 0-.378-.005-.562-.037-.384-.067-.563-.33-.566-.702-.002-.399.206-.655.603-.724.153-.027.312-.014.47-.014l9.272-.001ZM14.39 29.664h9.227c.172 0 .35-.008.516.026.35.072.547.307.563.663.014.348-.139.622-.483.727-.19.058-.4.064-.602.064-6.167.003-12.334.003-18.5.001-.173 0-.347 0-.515-.032-.38-.075-.559-.337-.559-.711 0-.376.19-.631.564-.71.167-.035.342-.027.514-.027l9.276-.001ZM18.933 37.605c2.009 0 4.017-.002 6.026.003.628 0 .986.439.796.968-.137.38-.448.496-.825.495-1.113-.003-2.228 0-3.342 0-2.887 0-5.775 0-8.661-.002-.618-.001-.876-.194-.913-.651-.041-.512.237-.807.8-.81 1.647-.005 3.295-.002 4.943-.002h1.176ZM23.91 41.577c1.225 0 2.448-.002 3.672.001.562.002.84.248.84.724 0 .482-.267.723-.839.724-2.478.004-4.956.004-7.435 0-.552-.001-.85-.265-.851-.723 0-.46.3-.723.849-.725 1.255-.003 2.51 0 3.765 0ZM36.31 28.876c2.349-.005 4.334 1.985 4.325 4.334-.01 2.362-1.94 4.302-4.289 4.31a4.335 4.335 0 0 1-4.34-4.305 4.325 4.325 0 0 1 4.304-4.339Zm2.848 4.251a2.853 2.853 0 0 0-2.828-2.869c-1.562-.009-2.844 1.271-2.849 2.846-.005 1.554 1.292 2.88 2.826 2.887 1.532.006 2.849-1.317 2.851-2.864Z" fill="#1D53D2"/></svg>
